icons-common/small-screen.svg

<svg height="1em" width="auto" viewBox="0 0 105 105" fill="currentColor" xmlns="http://www.w3.org/2000/svg">
    <path d="M61.1718 28.0764L61.7338 47.9941L57.4103 43.6736L77.3419 44.2352C79.4172 44.2784 81.0602 46.0499 81.017 48.1237C80.9737 50.1544 79.3308 51.753 77.3419 51.7962L57.4103 52.3147C54.9891 52.4011 53.0002 50.4136 53.0867 47.9941L53.6488 28.0764C53.7785 23.2805 61.0853 23.2805 61.215 28.0764H61.1718Z"
          />
    <path d="M55.4646 44.5804C58.8802 40.5623 62.5985 36.8034 66.2735 33.0445C70.035 29.372 73.7965 25.6564 77.8174 22.2431C79.4171 20.9038 81.7951 21.0766 83.1787 22.7184C84.3893 24.1442 84.346 26.218 83.1787 27.6006C79.763 31.6187 76.0448 35.3776 72.3697 39.1365C68.6082 42.809 64.8467 46.5247 60.8258 49.9379C59.2261 51.2773 56.8481 51.1044 55.4646 49.4626C54.254 48.0368 54.2972 45.963 55.4646 44.5804Z"
          />
    <path d="M44.9154 76.5955L44.3533 56.6778L48.6769 60.9983L28.7452 60.4367C26.6699 60.3934 25.0269 58.622 25.0702 56.5481C25.1134 54.5175 26.7564 52.9189 28.7452 52.8757L48.6769 52.3572C51.0981 52.2708 53.0869 54.2583 53.0004 56.6778L52.4384 76.5955C52.3087 81.3914 45.0018 81.3914 44.8721 76.5955H44.9154Z"
          />
    <path d="M50.6225 60.0908C47.2069 64.109 43.4886 67.8679 39.8136 71.6267C36.0521 75.2992 32.2906 79.0149 28.2696 82.4281C26.6699 83.7675 24.292 83.5947 22.9084 81.9529C21.6978 80.5271 21.741 78.4532 22.9084 77.0706C26.324 73.0525 30.0423 69.2936 33.7173 65.5347C37.4788 61.8623 41.2404 58.1466 45.2613 54.7334C46.861 53.394 49.239 53.5668 50.6225 55.2086C51.8331 56.6344 51.7899 58.7083 50.6225 60.0908Z"
          />
</svg>

<svg xmlns="http://www.w3.org/2000/svg" width="auto" height="1em" fill="currentColor" viewBox="0 0 105 105">
    <path d="m61.172 28.076.562 19.918-4.324-4.32 19.932.561c2.075.043 3.718 1.815 3.675 3.889a3.757 3.757 0 0 1-3.675 3.672l-19.932.519a4.18 4.18 0 0 1-4.323-4.32l.562-19.919c.13-4.796 7.436-4.796 7.566 0z"/>
    <path d="M55.465 44.58c3.415-4.018 7.133-7.777 10.808-11.535 3.762-3.673 7.523-7.389 11.544-10.802a3.79 3.79 0 0 1 5.362.475c1.21 1.426 1.167 3.5 0 4.883-3.416 4.018-7.134 7.777-10.81 11.535-3.76 3.673-7.522 7.389-11.543 10.802a3.79 3.79 0 0 1-5.361-.475c-1.211-1.426-1.168-3.5 0-4.883m-10.55 32.016-.562-19.918 4.324 4.32-19.932-.561c-2.075-.044-3.718-1.815-3.675-3.889a3.757 3.757 0 0 1 3.675-3.672l19.932-.519A4.18 4.18 0 0 1 53 56.677l-.562 19.919c-.13 4.795-7.436 4.795-7.566 0z"/>
    <path d="M50.623 60.09c-3.416 4.019-7.134 7.778-10.81 11.537-3.76 3.672-7.522 7.388-11.543 10.801a3.79 3.79 0 0 1-5.362-.475c-1.21-1.426-1.167-3.5 0-4.882 3.416-4.019 7.134-7.777 10.81-11.536 3.76-3.673 7.522-7.388 11.543-10.802a3.79 3.79 0 0 1 5.361.476c1.211 1.425 1.168 3.5 0 4.882"/>
</svg>
